X: 23629
T: Lily Of The Valley
R: reel
M: 4/4
K: Gmajor
|:G2 BG DGBG|AGFA cAFA|G2 AG DGBG|AdcA AGGF|
G2 BG DGBG|AGFA cAFA|G2 AG DGBG|1 AdcA AGGF:|2 AdcA AGGB||
|:cdec BcdB|ABAG EAAG|EAAB cdec|
Bdgd BG ~G2|[M:2/4] DGGB:|[M:4/4]cdeB cdeA|
BcdA BcdB|cdeB cd e2|e=fed cAAB|
cdeB cdec|Bdgd BGAB|c3 A B3 G|[M:2/4]AGFA||

